X: 23116
T: Laurel Tree, The
R: reel
M: 4/4
K: Adorian
"Am" eA (3ABA e2 dc|"G" BG G2 Bd d2|"Am" eA (3ABA e2 dc|"G" BA (3GAB"Am" A2- A2|
"Am" eA (3ABA e2 dc|"G" BG G2 Bd d2|"Am" e2 ef"Em" g2 ga|"G" gedB"Am" A2- A2:|
"Am" eaag e2 dc|"G" BG G2 Bd d2|"Am" eaag a2 ga|"G" bagb"Am" a2- a2|"Am" eaag e2 dc|
"G" BG G2 Bd d2|"Am" e2 ef"Em" g2 ga|"G" gedB"Am" A2- A2:|

